img/svg/maintenance-6.svg

<svg width="67" height="32" viewBox="0 0 67 32" fill="none" xmlns="http://www.w3.org/2000/svg">
<path d="M66.7945 21.7116C66.7945 21.4172 66.7132 21.1939 66.7132 21.0721C66.7183 21.0249 66.7183 20.9772 66.7132 20.93C66.3725 19.4639 65.7371 18.0825 64.8456 16.8698C62.4297 13.4592 57.3545 11.1957 49.833 10.0994C48.1277 8.43476 38.434 -0.264206 22.0917 0.598585C7.79986 1.48168 7.49535 3.35952 7.3837 4.07005C7.34587 4.36254 7.39157 4.65977 7.5155 4.92739C7.63943 5.19502 7.83655 5.42212 8.08408 5.58247C6.50687 7.62114 5.12376 9.80284 3.95283 12.0991C3.12376 13.6811 2.56132 15.389 2.28815 17.154C1.40506 18.0879 -1.09195 21.1229 0.542272 24.4015C0.891 25.0475 1.40838 25.5869 2.03934 25.9623C2.6703 26.3377 3.39123 26.5349 4.12539 26.5331H8.06378C8.29867 28.043 9.06565 29.4191 10.2262 30.4131C11.3868 31.4071 12.8645 31.9534 14.3926 31.9534C15.9207 31.9534 17.3984 31.4071 18.559 30.4131C19.7196 29.4191 20.4865 28.043 20.7214 26.5331H45.0826C45.3175 28.043 46.0844 29.4191 47.245 30.4131C48.4056 31.4071 49.8833 31.9534 51.4114 31.9534C52.9395 31.9534 54.4172 31.4071 55.5778 30.4131C56.7383 29.4191 57.5053 28.043 57.7402 26.5331H65.7388C65.9252 26.5334 66.1081 26.4825 66.2674 26.3858C66.4268 26.2891 66.5565 26.1504 66.6422 25.9849C67.17 24.98 67.0178 23.3864 66.7945 21.7116ZM63.3331 18.23C63.8429 18.9895 64.2523 19.8117 64.5512 20.6762H61.506C61.4322 20.6889 61.3566 20.6889 61.2827 20.6762V18.23H63.3331ZM5.27239 14.1089C6.36935 14.8408 7.24097 15.8635 7.78971 17.0627L4.41976 16.748C4.61337 15.8416 4.89907 14.9573 5.27239 14.1089ZM14.4078 29.9132C13.5401 29.9152 12.6913 29.6597 11.9689 29.1791C11.2464 28.6985 10.6828 28.0144 10.3494 27.2133C10.0159 26.4122 9.92764 25.5302 10.0957 24.6789C10.2637 23.8277 10.6806 23.0454 11.2934 22.4311C11.9063 21.8168 12.6876 21.3982 13.5385 21.2282C14.3893 21.0582 15.2715 21.1444 16.0734 21.476C16.8752 21.8076 17.5607 22.3696 18.043 23.0909C18.5252 23.8123 18.7827 24.6605 18.7827 25.5282C18.7867 26.1066 18.6762 26.6801 18.4577 27.2156C18.2391 27.7511 17.9167 28.2381 17.5092 28.6485C17.1016 29.059 16.6168 29.3847 16.0828 29.6069C15.5488 29.8292 14.9761 29.9436 14.3977 29.9436L14.4078 29.9132ZM51.4266 29.9132C50.5598 29.9132 49.7124 29.6562 48.9915 29.1749C48.2706 28.6935 47.7086 28.0092 47.3764 27.2086C47.0442 26.4079 46.9568 25.5268 47.1251 24.6764C47.2935 23.8261 47.7101 23.0447 48.3224 22.4311C48.9346 21.8174 49.715 21.399 50.5649 21.2287C51.4149 21.0583 52.2962 21.1437 53.0977 21.474C53.8991 21.8044 54.5846 22.3648 55.0677 23.0846C55.5507 23.8044 55.8096 24.6512 55.8116 25.518C55.8156 26.0978 55.7049 26.6726 55.4859 27.2093C55.2668 27.7461 54.9437 28.2342 54.5351 28.6456C54.1266 29.0569 53.6407 29.3834 53.1055 29.6062C52.5703 29.829 51.9962 29.9436 51.4165 29.9436L51.4266 29.9132ZM64.9674 24.5131H57.7504C57.5155 23.0032 56.7485 21.627 55.5879 20.633C54.4273 19.6391 52.9496 19.0927 51.4215 19.0927C49.8935 19.0927 48.4158 19.6391 47.2552 20.633C46.0946 21.627 45.3276 23.0032 45.0927 24.5131H20.7316C20.4832 23.0139 19.7107 21.6516 18.5517 20.6688C17.3926 19.686 15.9224 19.1466 14.4028 19.1466C12.8831 19.1466 11.4129 19.686 10.2539 20.6688C9.09483 21.6516 8.32232 23.0139 8.07393 24.5131H4.12539C3.76623 24.5222 3.41149 24.4322 3.09999 24.2532C2.78849 24.0742 2.53222 23.813 2.35921 23.4981C1.34416 21.468 2.94794 19.4379 3.64832 18.6867L8.80476 19.2146H8.90627C9.15564 19.2164 9.39695 19.1263 9.58417 18.9616C9.77138 18.7968 9.8914 18.5689 9.92132 18.3213C10.2664 15.4995 7.57655 13.2461 6.15549 12.231C7.3776 10.0012 8.80122 7.88782 10.4085 5.91744C10.51 5.79488 10.5813 5.65018 10.6165 5.49502C10.6518 5.33985 10.6501 5.17858 10.6115 5.0242C10.5741 4.86848 10.5003 4.72385 10.3962 4.60212C10.2921 4.4804 10.1607 4.38503 10.0127 4.32381H9.95177C11.9819 3.61328 17.4428 2.9332 22.2135 2.63883C38.8705 1.73544 48.5236 11.6626 48.6048 11.7743C48.7641 11.9408 48.9753 12.0482 49.2037 12.0788C55.6391 12.972 59.3541 14.6164 61.3842 16.2202H61.0188C60.5524 16.2625 60.1164 16.4697 59.789 16.8046C59.4616 17.1394 59.2642 17.58 59.2323 18.0473V20.9097C59.2589 21.1778 59.3385 21.438 59.4665 21.675C59.5946 21.9121 59.7686 22.1212 59.9783 22.2903C60.1881 22.4594 60.4294 22.5851 60.6882 22.66C60.947 22.7349 61.2181 22.7576 61.4857 22.7266H64.8659C64.9474 23.3185 64.9814 23.9159 64.9674 24.5131Z" fill="white"/>
<path d="M28.932 4.9943C28.6628 4.9943 28.4047 5.10124 28.2143 5.2916C28.0239 5.48195 27.917 5.74014 27.917 6.00934V12.0996C27.917 12.3688 28.0239 12.627 28.2143 12.8174C28.4047 13.0077 28.6628 13.1147 28.932 13.1147H42.3814C42.5553 13.1159 42.7266 13.0724 42.8789 12.9884C43.0311 12.9044 43.1592 12.7827 43.2509 12.635C43.3426 12.4872 43.3949 12.3184 43.4026 12.1447C43.4103 11.9709 43.3732 11.7981 43.295 11.6429C43.1427 11.3079 39.5697 4.47662 28.932 4.9943ZM29.9471 11.0846V7.02439C35.6923 7.02439 38.91 9.43005 40.4021 11.0846H29.9471Z" fill="white"/>
<path d="M24.3046 4.92318C21.2147 4.97938 18.1335 5.27121 15.088 5.79612C14.918 5.82751 14.7589 5.9018 14.6256 6.01194C14.4924 6.12207 14.3895 6.26441 14.3267 6.42545L12.2256 11.724C12.1642 11.8777 12.1414 12.0441 12.1591 12.2086C12.1768 12.3731 12.2345 12.5308 12.3271 12.668C12.4202 12.8057 12.5457 12.9185 12.6926 12.9964C12.8395 13.0743 13.0033 13.1149 13.1696 13.1146H24.3858C24.655 13.1146 24.9132 13.0077 25.1036 12.8173C25.2939 12.627 25.4009 12.3688 25.4009 12.0996V5.93822C25.4013 5.79781 25.3726 5.65883 25.3166 5.53007C25.2606 5.4013 25.1785 5.28557 25.0755 5.19017C24.9724 5.09477 24.8507 5.02178 24.7181 4.97583C24.5854 4.92987 24.4446 4.91194 24.3046 4.92318ZM23.3708 11.0845H14.6617L16.0015 7.70441C18.4403 7.30698 20.9015 7.06289 23.3708 6.97357V11.0845Z" fill="white"/>
<path d="M33.928 15.1138H31.8979C31.6287 15.1138 31.3705 15.2207 31.1801 15.4111C30.9898 15.6014 30.8828 15.8596 30.8828 16.1288C30.8828 16.398 30.9898 16.6562 31.1801 16.8466C31.3705 17.0369 31.6287 17.1439 31.8979 17.1439H33.928C34.1972 17.1439 34.4553 17.0369 34.6457 16.8466C34.8361 16.6562 34.943 16.398 34.943 16.1288C34.943 15.8596 34.8361 15.6014 34.6457 15.4111C34.4553 15.2207 34.1972 15.1138 33.928 15.1138Z" fill="white"/>
</svg>

<svg width="67" height="32" viewBox="0 0 67 32" fill="none" xmlns="http://www.w3.org/2000/svg"><path d="M66.794 21.712c0-.295-.08-.518-.08-.64a.662.662 0 000-.142 11.095 11.095 0 00-1.868-4.06c-2.416-3.41-7.492-5.674-15.013-6.77C48.128 8.434 38.434-.265 22.092.598 7.8 1.482 7.495 3.359 7.384 4.07a1.563 1.563 0 00.7 1.512A41.342 41.342 0 003.953 12.1a16.241 16.241 0 00-1.665 5.055c-.883.934-3.38 3.969-1.746 7.247a4.06 4.06 0 003.583 2.132h3.939a6.405 6.405 0 0012.657 0h24.362a6.405 6.405 0 0012.657 0h7.999a1.015 1.015 0 00.903-.548c.528-1.005.376-2.599.153-4.273zm-3.46-3.482c.509.76.918 1.582 1.217 2.446h-3.045a.66.66 0 01-.223 0V18.23h2.05zM5.271 14.109a7.105 7.105 0 012.518 2.954l-3.37-.315c.193-.906.48-1.79.852-2.64zm9.136 15.804a4.385 4.385 0 114.375-4.385 4.386 4.386 0 01-4.385 4.416l.01-.03zm37.019 0a4.386 4.386 0 114.385-4.395 4.396 4.396 0 01-4.395 4.426l.01-.03zm13.54-5.4H57.75a6.405 6.405 0 00-12.657 0H20.732a6.415 6.415 0 00-12.658 0H4.125a1.959 1.959 0 01-1.766-1.015c-1.015-2.03.589-4.06 1.29-4.811l5.156.528h.101a1.015 1.015 0 001.015-.894c.345-2.822-2.344-5.075-3.766-6.09a41.683 41.683 0 014.253-6.314 1.014 1.014 0 00.204-.893 1.014 1.014 0 00-.6-.7h-.06c2.03-.71 7.49-1.39 12.261-1.685 16.657-.904 26.31 9.024 26.392 9.135.16.167.37.274.599.305 6.435.893 10.15 2.537 12.18 4.141h-.365a1.968 1.968 0 00-1.787 1.827v2.863a2.033 2.033 0 002.254 1.817h3.38c.081.591.115 1.189.101 1.786z" fill="#fff"/><path d="M28.932 4.994a1.015 1.015 0 00-1.015 1.015v6.09a1.015 1.015 0 001.015 1.016h13.45a1.016 1.016 0 00.913-1.472c-.152-.335-3.725-7.166-14.363-6.649zm1.015 6.09v-4.06c5.745 0 8.963 2.406 10.455 4.06H29.947zm-5.642-6.161a60.77 60.77 0 00-9.217.873 1.015 1.015 0 00-.761.63l-2.101 5.298a1.014 1.014 0 00.944 1.39h11.216A1.015 1.015 0 0025.4 12.1V5.938a1.016 1.016 0 00-1.096-1.015zm-.934 6.162h-8.71l1.34-3.38a59.1 59.1 0 017.37-.731v4.11zm10.557 4.029h-2.03a1.015 1.015 0 100 2.03h2.03a1.015 1.015 0 000-2.03z" fill="#fff"/></svg>
